!!!COM: Schiørring, Niels
!!!CDT: 1743-1798
!!!OPR@@DA: Choral-Bog
!!!ONM: 16
!!!OTL@@DA: Et Barn er fød i Bethlehem.
**kern	**fb	**kern	**kern	**kern	**kern	**kern	**kern	**kern
*part6	*part6	*part6	*part5	*part5	*part4	*part3	*part2	*part1
*staff8	*	*staff7	*staff6	*staff5	*staff4	*staff3	*staff2	*staff1
*clefF4	*	*clefC1	*clefF4	*clefC1	*clefF4	*clefC4	*clefC3	*clefC1
*mclefF4	*	*mclefG2	*mclefF4	*mclefG2	*mclefF4	*mclefGv2	*mclefG2	*mclefG2
*k[b-]	*	*k[b-]	*k[b-]	*k[b-]	*k[b-]	*k[b-]	*k[b-]	*k[b-]
*F:	*	*F:	*F:	*F:	*F:	*F:	*F:	*F:
*M3/2	*	*M3/2	*M3/2	*M3/2	*M3/2	*M3/2	*M3/2	*M3/2
*	*	*	*^	*^	*	*	*	*
=1	=1	=1	=1	=1	=1	=1	=1	=1	=1	=1
2GG	.	2g	2ryy	2GG	2B-	2d	2GG	2B-	2d	2g
=2	=2	=2	=2	=2	=2	=2	=2	=2	=2	=2
1BB-	6	1g	1.ryy	1BB-	1d	1d	1BB-	1d	1d	1g
2C	.	2g	.	2C	2c	2e	2C	2c	2e	2g
=3	=3	=3	=3	=3	=3	=3	=3	=3	=3	=3
1F	.	1a	1.ryy	1F	1c	1f	1F	1c	1f	1a
2D	.	2a	.	2D	2d	2f	2D	2d	2f	2a
=4	=4	=4	=4	=4	=4	=4	=4	=4	=4	=4
1BB-	.	1b-	1ryy	1BB-	1d	1f	1BB-	1d	1f	1b-
2C	.	2g	2c	2C	2g	2e	2C	2c	2e	2g
=5	=5	=5	=5	=5	=5	=5	=5	=5	=5	=5
1F	.	1f	1A	1F	1f	1c	1F	1A	1f	1f
2E-X	2	2f	2A	2E-X	2f	2c	2E-X	2A	2c	2f
=6	=6	=6	=6	=6	=6	=6	=6	=6	=6	=6
2D	6	1b-	2B-	2D	1b-	1f	(2D	(2B-	1f	1b-
2BB-	.	.	2ryy	2BB-	.	.	2BB-)	2d)	.	.
2F	.	2a	2ryy	2F	2c	2f	2F	2c	2f	2a
=7	=7	=7	=7	=7	=7	=7	=7	=7	=7	=7
1BB-	.	1b-	1.ryy	1BB-	1d	1f	1BB-	1d	1f	1b-
2BB-	.	2b-	.	2BB-	2d	2f	2BB-	2d	2f	2b-
=8	=8	=8	=8	=8	=8	=8	=8	=8	=8	=8
1D	6	1b-	1ryy	1D	1d	1f	1D	1d	1f	1b-
2E	5	2b-	2c	2E	2b-	2g	2E	2c	2g	2b-
=9	=9	=9	=9	=9	=9	=9	=9	=9	=9	=9
1F	.	1a	1c	1F	1a	1f	1F	1c	1f	1a
2D	7 #	2a	2c	2D	2a	2f#X	2D	2c	2f#X	2a
=10	=10	=10	=10	=10	=10	=10	=10	=10	=10	=10
2E-X	.	1g	2B-	2E-X	1g	2g	(2E-X	(2B-	(2g	1g
2C	6 5 -	.	1A	2C	.	2e-X	2C)	2A)	2e-X)	.
2D	#	2f#X	.	2D	2f#X	2d	2D	2A	2d	2f#X
=11	=11	=11	=11	=11	=11	=11	=11	=11	=11	=11
*	*	*	*	*	*	*^	*	*	*	*
1GG	.	1g	1G	1GG	1g	1d	1B-\	1GG	1B-	1d	1g
*	*	*	*	*	*	*v	*v	*^	*	*	*
2B-	6	2g	2G	2BB-	2g	2d	2B-	2BB-	2G	2d	2g
=12	=12	=12	=12	=12	=12	=12	=12	=12	=12	=12	=12
1A	#6\	1f#X	1A	1AA	1f#X	1c	1A	2AA	1A	1c	1f#X
.	.	.	.	.	.	.	.	2A	.	.	.
*	*	*	*	*	*	*^	*	*	*	*	*
2G	.	2g	2G	2GG	2g	2d	2B-\	2G	2G	2B-	2d	2g
*	*	*	*	*	*	*	*	*v	*v	*	*	*
=13	=13	=13	=13	=13	=13	=13	=13	=13	=13	=13	=13
2F#X	6	1a	1A	2F#X	1a	2d	1.r	(2F#X	1A	(2d	1a
2D	#	.	.	2D	.	2f#X	.	2D)	.	2f#X)	.
2C	#4|	2a	2ryy	2C	2d	2f#	.	2C	2d	2f#	2a
=14	=14	=14	=14	=14	=14	=14	=14	=14	=14	=14	=14
2BB-	6	1g	2ryy	2BB-	2d	2g	1.r	(2BB-	(2d	(2g	1g
2GG	.	.	2ryy	2GG	2B-	2d	.	2GG)	2B-)	2d)	.
2D	#	2f#X	2A	2D	2f#X	2d	.	2D	2A	2d	2f#X
=15	=15	=15	=15	=15	=15	=15	=15	=15	=15	=15	=15
1GG	.	1g	1G	1GG	1g	1d	1B-\	1GG	1B-	1d	1g
*	*	*	*v	*v	*	*	*	*	*	*	*
*	*	*	*	*v	*v	*v	*	*	*	*
==	==	==	==	==	==	==	==	==
*-	*-	*-	*-	*-	*-	*-	*-	*-
!!!system-decoration: {(s1,s2,s3,s4)}{(s5,s6)}{(s7,s8)}
!!!RDF**kern: > = above
!!!RDF**kern: < = below
!!!AGN: chorale
!!!EED: Derek Remeš
!!!EED2: Victor Phan
!!!END: 2023/11/28
!!!ENC: Wolfgang Drescher
!!!EEV: 2023/12/08
!!!title: @{ONM}. @{OTL}
!!!verovio: mnumInterval 1